image/Icon-LiveFeed.svg

<svg width="36" height="36" viewBox="0 0 36 36" fill="none" xmlns="http://www.w3.org/2000/svg">
<path opacity="0.4" d="M23.1984 24.7106H12.3684" stroke="#200E32" stroke-width="2" stroke-linecap="round" stroke-linejoin="round"/>
<path opacity="0.4" d="M23.1984 18.4307H12.3684" stroke="#200E32" stroke-width="2" stroke-linecap="round" stroke-linejoin="round"/>
<path opacity="0.4" d="M16.5009 12.1658H12.3684" stroke="#200E32" stroke-width="2" stroke-linecap="round" stroke-linejoin="round"/>
<path fill-rule="evenodd" clip-rule="evenodd" d="M23.4869 4.5C23.4869 4.5 11.9714 4.506 11.9534 4.506C7.81342 4.5315 5.24992 7.2555 5.24992 11.4105V25.2045C5.24992 29.3805 7.83292 32.115 12.0089 32.115C12.0089 32.115 23.5229 32.1105 23.5424 32.1105C27.6824 32.085 30.2474 29.3595 30.2474 25.2045V11.4105C30.2474 7.2345 27.6629 4.5 23.4869 4.5Z" stroke="#200E32" stroke-width="2" stroke-linecap="round" stroke-linejoin="round"/>
</svg>

<svg xmlns="http://www.w3.org/2000/svg" width="36" height="36" fill="none" viewBox="0 0 36 36">
    <path stroke="#9F99A9" stroke-linecap="round" stroke-linejoin="round" stroke-width="2" d="M23.199 24.71h-10.83M23.199 18.43h-10.83M16.501 12.166H12.37"/>
    <path fill-rule="evenodd" stroke="#323C45" stroke-linecap="round" stroke-linejoin="round" stroke-width="2" d="M23.487 4.5l-11.533.006c-4.14.026-6.704 2.75-6.704 6.905v13.793c0 4.177 2.583 6.911 6.759 6.911l11.534-.005c4.14-.025 6.704-2.75 6.704-6.905V11.41c0-4.176-2.584-6.911-6.76-6.911z" clip-rule="evenodd"/>
</svg>
